X:386
T:Back of the Change. RH.386
R:air
S:Rev.R.Harrison’s MS,c1815,Cumbria
O:England
A:Temple Sowerby,Cumbria
Z:vmp.Simon Wilson. Review PJH, 2008.
M:C
L:1/8
Q:2/4=50
K:D
B|A>F Af e>d Bd|A>F AB d>e dB|\
A>F Af ed Bf/g/|a>AAB d2d:|!
|:a|f>d fd e>d Ba|f>efg a>baf|\
g>bf>g e>dBg|f/g/a A>B d2d|]

